X:1
T:Title
%%score { ( 1 3 ) | 2 }
L:1/8
M:6/4
K:Ab
V:1 treble nm="Grand Piano"
V:3 treble 
V:2 bass 
V:1
 z6 z4[Q:1/4=138] [CE]2 | [Ec]4 [Fd]2 [Ec]4 [DB]2 | [CA]4 [DB]2 [CA]4 [DF]2 | %3
 [CE]4 [EA]2 [EB]4 [Ec]2 | B6- B4 E2 | [Ec]4 [Fd]2 [Ec]4 [DB]2 | [CA]4 [DB]2 [CA]4 [DF]2 | %7
 E4 [Fd]2 [Ec]4 [DB]2 | [CA]12 | [EB]4 [EB]2 [EB]4 AB | [Ec]4 [Ec]2 [Ec]6 | [Fd]4 [Fd]2 c4 c2 | %12
 z6 B6 | [Ec]4 [Ec]2 [Fd]4 [Ec]2 | B4 A2 F6 | E4 [Fd]2 c4 B2 |[M:15/8] A3- A G2 [CA]3- [CA]6 |] %17
V:2
 z6 z4 [A,,A,]2 | [A,,A,]4 [A,,A,]2 [A,,A,]4 [A,,E,]2 | [A,,E,]4 [A,,E,]2 [A,,E,]4 [A,,A,]2 | %3
 [A,,A,]4 [C,A,]2 [B,,G,]4 [A,,A,]2 | [E,G,E]6- [E,G,E]4 [E,G,]2 | %5
 [A,,A,]4 [A,,A,]2 [A,,A,]4 [A,,E,]2 | [A,,E,]4 [A,,E,]2 [A,,E,]4 [A,,A,]2 | %7
 [C,A,]4 [D,A,]2 [E,A,]4 [E,G,]2 | [A,,E,A,]12 | [E,G,]4 [E,G,]2 [D,G,]4 [C,A,][B,,G,] | %10
 [A,,A,]4 [A,,A,]2 [A,,A,]6 | [D,A,]4 [D,A,]2 [A,E]4 [A,E]2 | [G,B,E]4 [F,B,=D]2 .[E,G,E]6 | %13
 [A,,A,]4 [A,,A,]2 [A,,A,]4 [A,,A,]2 | [E,G,D]4 [F,A,C]2 [D,A,D]6 | %15
 [C,A,]4 [D,A,]2 [E,A,E]4 [E,G,E]2 |[M:15/8] [E,CE]3- [E,CE] [E,B,D]2 [A,,A,]3- [A,,A,]6 |] %17
V:3
 x12 | x12 | x12 | x12 | x12 | x12 | x12 | x12 | x12 | z6 z4 E2 | x12 | x12 | B4 A2 z4 D2 | x12 | %14
 x12 | x12 |[M:15/8] x15 |] %17

